X:1
T:Title
%%score { 1 | 2 }
L:1/8
M:3/4
K:Bb
V:1 treble nm="Grand Piano"
V:2 bass 
V:1
 z2 z2[Q:1/4=100] [DF]2 | [DF]2 [B,D]2 [DF]2 | [DB]3 [FA] [EG]2 | F2 G2 E2 | D4 D2 | D2 G2 B2 | %6
 [Bd]3 [Ac] [GB]2 | [GB]2 [^FA]2 [GB]2 | [Ac]4 [DF]2 | [DF]2 [B,D]2 [DF]2 | [DB]3 [Dc] [Dd]2 | %11
 [EG]2 [GB]2 [Ge]2 | [Bd]4 [Bd]2 | [Ge]3 [Gd] [Gc]2 | [B,EG]2 [CEG]2 [_DGB]2 | %15
 [DFB]2 [_DFB]2 [CFA]2 |[M:2/4] [DFB]4 |] %17
V:2
 z2 z2 [B,,F,]2 | [B,,F,]2 [B,,F,]2 [B,,F,]2 | [B,,F,]3 [B,,F,] [B,,F,]2 | %3
 [F,D]2 [F,G,E]2 [F,A,C]2 | [B,,B,]4 B,2 | G,2 [G,D]2 [G,D]2 | [D,G,]3 [D,G,] [D,G,]2 | %7
 [G,D]2 [D,A,]2 [G,D]2 | [F,C]4 [B,,F,]2 | [B,,F,]2 [B,,F,]2 [B,,F,]2 | [B,,F,]3 [B,,F,] [B,,F,]2 | %11
 [E,B,]2 [E,B,]2 [E,B,]2 | [B,,B,]4 [F,B,]2 | [E,A,]3 [E,A,] [E,A,]2 | E,2 E,2 =E,2 | F,2 F,2 F,2 | %16
[M:2/4] B,,4 |] %17

